X: 18319
T: Humours Of Tullyknockbrine, The
R: reel
M: 4/4
K: Gmajor
G2dc BDGB|dGBd eAAB|G2dc Bcde|dBcA BGGF|
G2dc BDGB|dGBd eAAB|G2dc Bcde|dBcA BGBd||
egfg egfe|defg afdf|egfg efga|bgaf geed|
efge bge^c|defg afdB|G2dc Bcde|dBcA BGG2||
P:Bpart variation
egfg egfe|dafd Adfd|egfg efga|bgaf geed|
egfg ebge|dafd Adfd|G2dc Bcde|dBcA BGAF||

